X: 2
M: C|
L: 1/8
K: Bb
d>e |\
{f}f>=ef>g f>_ed>c | d>cd>e d>cB>A |\
g>^fg>a g>=fe>d | e>de>f e>dc>B |\
|: {d}c>B |\
(A<f)Tf2 (a<f)Tf2 | d>fg>a b>ag>a |\
b>ag>f a>gf>=e | (3fag (3fed c2 {d}c>B |
(A<f)Tf2 (a<f)Tf2 | d>fg>a b>ag>a |\
b>ag>f a>gf>=e | {g}f>=ef>g f2 :|

